SVG_Azure_Grouped/Data/Video Analyzer.svg

<?xml version="1.0" encoding="UTF-8" standalone="no"?>
<!-- Generated by Microsoft Visio, SVG Export Video Analyzer.svg Page-1 -->

<svg
   xmlns:dc="http://purl.org/dc/elements/1.1/"
   xmlns:cc="http://creativecommons.org/ns#"
   xmlns:rdf="http://www.w3.org/1999/02/22-rdf-syntax-ns#"
   xmlns:svg="http://www.w3.org/2000/svg"
   xmlns="http://www.w3.org/2000/svg"
   xmlns:sodipodi="http://sodipodi.sourceforge.net/DTD/sodipodi-0.dtd"
   xmlns:inkscape="http://www.inkscape.org/namespaces/inkscape"
   width="0.78736132in"
   height="0.55134863in"
   viewBox="0 0 56.689998 39.696976"
   xml:space="preserve"
   class="st5"
   version="1.1"
   id="svg40"
   sodipodi:docname="Video Analyzer.svg"
   style="font-size:12px;overflow:visible;color-interpolation-filters:sRGB;fill:none;fill-rule:evenodd;stroke-linecap:square;stroke-miterlimit:3"
   inkscape:version="0.92.5 (2060ec1f9f, 2020-04-08)"><metadata
   id="metadata44"><rdf:RDF><cc:Work
       rdf:about=""><dc:format>image/svg+xml</dc:format><dc:type
         rdf:resource="http://purl.org/dc/dcmitype/StillImage" /></cc:Work></rdf:RDF></metadata><sodipodi:namedview
   pagecolor="#ffffff"
   bordercolor="#666666"
   borderopacity="1"
   objecttolerance="10"
   gridtolerance="10"
   guidetolerance="10"
   inkscape:pageopacity="0"
   inkscape:pageshadow="2"
   inkscape:window-width="640"
   inkscape:window-height="480"
   id="namedview42"
   showgrid="false"
   inkscape:zoom="1.3840408"
   inkscape:cx="37.795345"
   inkscape:cy="26.466692"
   inkscape:window-x="0"
   inkscape:window-y="0"
   inkscape:window-maximized="0"
   inkscape:current-layer="svg40" />
	<style
   type="text/css"
   id="style2">
	<![CDATA[
		.st1 {fill:url(#grad0-6);stroke:none;stroke-linecap:butt;stroke-width:44.097}
		.st2 {fill:#83b9f9;stroke:none;stroke-linecap:butt;stroke-width:10.9882}
		.st3 {fill:#9cebff;stroke:none;stroke-linecap:butt;stroke-width:10.9882}
		.st4 {fill:#c3f1ff;stroke:none;stroke-linecap:butt;stroke-width:10.9882}
		.st5 {fill:none;fill-rule:evenodd;font-size:12px;overflow:visible;stroke-linecap:square;stroke-miterlimit:3}
	]]>
	</style>

	<defs
   id="Patterns_And_Gradients">
		<linearGradient
   id="grad0-6"
   x1="0"
   y1="105.39725"
   x2="47.438677"
   y2="105.39725"
   gradientTransform="scale(1.1950165,0.83680856)"
   gradientUnits="userSpaceOnUse">
			<stop
   offset="0.18"
   stop-color="#5ea0ef"
   stop-opacity="1"
   id="stop4" />
			<stop
   offset="1"
   stop-color="#0078d4"
   stop-opacity="1"
   id="stop6" />
		</linearGradient>
	</defs>
	<g
   id="g38"
   transform="translate(-44.097,-44.096105)">
		<title
   id="title10">Page-1</title>
		<g
   id="group18816-1"
   transform="translate(44.097,-44.1014)">
			<title
   id="title12">Video Analyzer.18816</title>
			<g
   id="group18817-2">
				<title
   id="title14">g12</title>
				<g
   id="shape18818-3">
					<title
   id="title16">path10</title>
					<path
   d="M 56.69,115.4 A 12.8923,12.4816 -180 0 0 45.66,103.4 16.2393,15.722 -180 0 0 29.13,88.2 16.5285,16.002 -180 0 0 13.31,98.84 15.2889,14.8019 -180 0 0 0,113.2 15.5782,15.0819 -180 0 0 15.95,127.89 H 43.92 A 13.0162,12.6016 -180 0 0 56.69,115.4 Z"
   class="st1"
   id="path18"
   inkscape:connector-curvature="0"
   style="fill:url(#grad0-6);stroke:none;stroke-width:44.09700012;stroke-linecap:butt" />
				</g>
				<g
   id="shape18819-7"
   transform="translate(12.3602,-6.87784)">
					<title
   id="title21">path6</title>
					<path
   d="m 30.93,118.85 -14.37,-5.17 -0.37,0.9 0.23,-0.82 -12.76,-2.72 -0.61,2.07 10.77,2.26 -13.82,5.53 1.06,1.84 14.27,-5.74 2.55,10.89 2.21,-0.27 -2.6,-11.23 12.6,4.46 z"
   class="st2"
   id="path23"
   inkscape:connector-curvature="0"
   style="fill:#83b9f9;stroke:none;stroke-width:10.98820019;stroke-linecap:butt" />
				</g>
				<g
   id="shape18820-9"
   transform="translate(10.6046,-5.19416)">
					<title
   id="title26">path8</title>
					<path
   d="m 3.2,112.22 a 2.82228,2.73238 -180 1 0 0.5,-3.84 l -0.06,0.05 A 2.80272,2.71344 -180 0 0 3.2,112.22 Z M 0,121.88 a 2.83875,2.74833 -180 1 0 4.46,-3.4 2.83875,2.74833 -180 0 0 -4.46,3.4 z m 29.67,-2.39 a 2.80992,2.72041 -180 1 0 0.5,-3.8 2.778,2.68951 -180 0 0 -0.52,3.76 z m -11.15,8.4 a 2.80889,2.71942 -180 1 0 0.5,-3.82 2.778,2.68951 -180 0 0 -0.54,3.78 z"
   class="st3"
   id="path28"
   inkscape:connector-curvature="0"
   style="fill:#9cebff;stroke:none;stroke-width:10.98820019;stroke-linecap:butt" />
				</g>
				<g
   id="shape18821-11"
   transform="translate(23.0243,-12.5549)">
					<title
   id="title31">path10-4</title>
					<path
   d="m 13.7,120.93 a 0.846375,0.819414 -180 0 0 0,-1.41952 L 7.5,116.04 1.28,112.57 a 0.846375,0.819414 -180 0 0 -1.28089,0.70976 L 0,127.17 a 0.846375,0.819414 -180 0 0 1.28089,0.70976 L 7.5,124.41 Z"
   class="st4"
   id="path33"
   inkscape:connector-curvature="0"
   style="fill:#c3f1ff;stroke:none;stroke-width:10.98820019;stroke-linecap:butt" />
				</g>
			</g>
		</g>
	</g>
</svg>

<?xml version="1.0" encoding="UTF-8" standalone="no"?>
<!DOCTYPE svg PUBLIC "-//W3C//DTD SVG 1.1//EN" "http://www.w3.org/Graphics/SVG/1.1/DTD/svg11.dtd">
<!-- Generated by Microsoft Visio, SVG Export Video Analyzer.svg Page-1 -->
<svg xmlns="http://www.w3.org/2000/svg" xmlns:xlink="http://www.w3.org/1999/xlink" xmlns:ev="http://www.w3.org/2001/xml-events"
		width="2.01232in" height="1.7762in" viewBox="0 0 144.887 127.886" xml:space="preserve" color-interpolation-filters="sRGB"
		class="st5">
	<style type="text/css">
	<![CDATA[
		.st1 {fill:url(#grad0-6);stroke:none;stroke-linecap:butt;stroke-width:44.097}
		.st2 {fill:#83b9f9;stroke:none;stroke-linecap:butt;stroke-width:10.9882}
		.st3 {fill:#9cebff;stroke:none;stroke-linecap:butt;stroke-width:10.9882}
		.st4 {fill:#c3f1ff;stroke:none;stroke-linecap:butt;stroke-width:10.9882}
		.st5 {fill:none;fill-rule:evenodd;font-size:12px;overflow:visible;stroke-linecap:square;stroke-miterlimit:3}
	]]>
	</style>

	<defs id="Patterns_And_Gradients">
		<linearGradient id="grad0-6" x1="0" y1="0" x2="1" y2="0" gradientTransform="rotate(90 0.5 0.5)">
			<stop offset="0.18" stop-color="#5ea0ef" stop-opacity="1"/>
			<stop offset="1" stop-color="#0078d4" stop-opacity="1"/>
		</linearGradient>
	</defs>
	<g>
		<title>Page-1</title>
		<g id="group18380-1" transform="translate(44.097,-44.1014)">
			<title>Video Analyzer.18380</title>
			<g id="group18381-2">
				<title>g12</title>
				<g id="shape18382-3">
					<title>path10</title>
					<path d="M56.69 115.4 A12.8923 12.4816 -180 0 0 45.66 103.4 A16.2393 15.722 -180 0 0 29.13 88.2 A16.5285 16.002
								 -180 0 0 13.31 98.84 A15.2889 14.8019 -180 0 0 0 113.2 A15.5782 15.0819 -180 0 0 15.95 127.89 L43.92
								 127.89 A13.0162 12.6016 -180 0 0 56.69 115.4 Z" class="st1"/>
				</g>
				<g id="shape18383-7" transform="translate(12.3602,-6.87784)">
					<title>path6</title>
					<path d="M30.93 118.85 L16.56 113.68 L16.19 114.58 L16.42 113.76 L3.66 111.04 L3.05 113.11 L13.82 115.37 L0 120.9
								 L1.06 122.74 L15.33 117 L17.88 127.89 L20.09 127.62 L17.49 116.39 L30.09 120.85 L30.93 118.85 Z"
							class="st2"/>
				</g>
				<g id="shape18384-9" transform="translate(10.6046,-5.19416)">
					<title>path8</title>
					<path d="M3.2 112.22 A2.82228 2.73238 -180 1 0 3.7 108.38 L3.64 108.43 A2.80272 2.71344 -180 0 0 3.2 112.22 L3.2
								 112.22 ZM0 121.88 A2.83875 2.74833 -180 1 0 4.46 118.48 A2.83875 2.74833 -180 0 0 -0 121.88 ZM29.67
								 119.49 A2.80992 2.72041 -180 1 0 30.17 115.69 A2.778 2.68951 -180 0 0 29.65 119.45 L29.67 119.49
								 L29.67 119.49 ZM18.52 127.89 A2.80889 2.71942 -180 1 0 19.02 124.07 A2.778 2.68951 -180 0 0 18.48
								 127.85 L18.52 127.89 Z" class="st3"/>
				</g>
				<g id="shape18385-11" transform="translate(23.0243,-12.5549)">
					<title>path10-4</title>
					<path d="M13.7 120.93 a0.846375 0.819414 -180 0 0 3.55271E-15 -1.41952 L7.5 116.04 L1.28 112.57 a0.846375 0.819414
								 -180 0 0 -1.28089 0.709761 L0 127.17 a0.846375 0.819414 -180 0 0 1.28089 0.709762 L7.5 124.41 L13.7
								 120.93 Z" class="st4"/>
				</g>
			</g>
		</g>
	</g>
</svg>
